X: 1
T: Dancing Feet
M: 4/4
L: 1/8
R: reel
K: Amaj
c |: a2 (ea) ce Ac|a2 (ea) ce Bc|a2 (ea) ce Ac|faef ceBc :|
|: eA ~A2 (ce) Ac|eA ~A2 (ce) Bc|eA ~A2 (ce) Ac|faef ceBc :|
